material/.icons/material/smart-card.svg

<svg xmlns="http://www.w3.org/2000/svg" viewBox="0 0 24 24"><path d="M2 3h20a2.07 2.07 0 012 2v14a2.07 2.07 0 01-2 2H2a2.07 2.07 0 01-2-2V5a2.07 2.07 0 012-2m6 10.91C6 13.91 2 15 2 17v1h12v-1c0-2-4-3.09-6-3.09M8 6a3 3 0 103 3 3 3 0 00-3-3m9 4v3h4v-3h-4"/></svg>

<?xml version="1.0" encoding="UTF-8"?><!DOCTYPE svg PUBLIC "-//W3C//DTD SVG 1.1//EN" "http://www.w3.org/Graphics/SVG/1.1/DTD/svg11.dtd"><svg xmlns="http://www.w3.org/2000/svg" xmlns:xlink="http://www.w3.org/1999/xlink" version="1.1" id="mdi-smart-card" width="24" height="24" viewBox="0 0 24 24"><path d="M2 3H22A2.07 2.07 0 0 1 24 5V19A2.07 2.07 0 0 1 22 21H2A2.07 2.07 0 0 1 0 19V5A2.07 2.07 0 0 1 2 3M8 13.91C6 13.91 2 15 2 17V18H14V17C14 15 10 13.91 8 13.91M8 6A3 3 0 1 0 11 9A3 3 0 0 0 8 6M17 10V13H21V10H17" /></svg>
